X: 442
T: Renzai wai qian xinzai jia
L: 1/8
M: 2/4
K: C
e> d c A/ A/ [I:setbarnb 1]| 
cd2e | 
d> c A G | 
A/ G/ ED2 | 
e> d c A/ A/ | 
cd2e | 
d> c A G | 
A/ G/ EG2 |]

@@@ Tune index: 9316
